X:1
T:The Twenty-First of Liverpool
M:4/4
L:1/4
K:G
 d/2d/2| d d d d| d d d d| B G G G| G2 z| d| d d d d| B G G A| B B A A|\
 G2 z| d| d d d d/2d/2| d d d d/2d/2| e e e e| d2 z| G| B B B15.9999925000037/23.999988000006 B15.9999925000037/23.999988000006 B15.9999925000037/23.999988000006|\
 B d d/2d/2 B| B A/2A/2 A A| A2 z| d| d d d d| d d d d| B G G G| G2 z|\
 d| d d d d| B G G A| B B A/2A/2 A| G2 z| d| d d d d| d d d d| e e e e|\
 d2 z| G| B B B15.9999925000037/23.999988000006 B15.9999925000037/23.999988000006 B15.9999925000037/23.999988000006|\
 B d d B/2B/2| G G G G| G2 z||
